src/lib/packages/icons/src/assets/filled/telescope.svg

<svg width="24" height="24" viewBox="0 0 24 24" fill="none" xmlns="http://www.w3.org/2000/svg">
<path d="M14.5481 4.2091L16.291 3.20104C17.007 2.78704 17.9229 3.03314 18.3369 3.74914L20.7991 8.02013C21.2131 8.73813 20.967 9.65518 20.25 10.0702L18.511 11.076C17.795 11.49 16.8781 11.2442 16.4651 10.5282L14 6.25304C13.588 5.53704 13.8331 4.6221 14.5481 4.2091ZM8.09594 14.9381L5.97191 11.2882C5.88391 11.1382 5.68793 11.093 5.54393 11.191L3.87011 12.3302C3.00711 12.9172 2.7441 14.07 3.2661 14.973L3.53002 15.43C4.05302 16.335 5.18392 16.6862 6.12792 16.2362L7.96605 15.3602C8.12405 15.2852 8.18394 15.0901 8.09594 14.9381ZM16.6699 20.65L12.6699 13.1102L15.2119 11.8971C15.3719 11.8211 15.4331 11.624 15.3401 11.472C14.7821 10.563 13.1301 7.70409 12.6211 6.77209C12.5361 6.61709 12.3369 6.57104 12.1909 6.67004L7.29198 10.0021C7.16198 10.0911 7.12192 10.265 7.20092 10.401L9.48192 14.3212C9.55992 14.4562 9.72911 14.508 9.87011 14.441L10.8799 13.9601L7.3601 20.65C7.1601 21.02 7.29991 21.47 7.66991 21.66C8.03991 21.86 8.48992 21.7202 8.67992 21.3502L12 15.0502L15.3401 21.3502C15.4801 21.6102 15.74 21.7501 16.01 21.7501C16.13 21.7501 16.2501 21.72 16.3601 21.66C16.7201 21.47 16.8599 21.01 16.6699 20.65Z" fill="currentColor"/>
</svg>

<svg xmlns="http://www.w3.org/2000/svg" width="24" height="24" fill="none"><path fill="currentColor" d="m14.548 4.21 1.743-1.01a1.498 1.498 0 0 1 2.046.548l2.462 4.271a1.502 1.502 0 0 1-.549 2.05l-1.739 1.006a1.497 1.497 0 0 1-2.046-.548L14 6.253a1.498 1.498 0 0 1 .548-2.044ZM8.096 14.937l-2.124-3.65a.3.3 0 0 0-.428-.097L3.87 12.33a1.99 1.99 0 0 0-.604 2.642l.264.457a2.004 2.004 0 0 0 2.598.806l1.838-.876a.3.3 0 0 0 .13-.422Zm8.574 5.712-4-7.54 2.542-1.213a.298.298 0 0 0 .128-.425 182.23 182.23 0 0 1-2.719-4.7.298.298 0 0 0-.43-.102l-4.899 3.332a.3.3 0 0 0-.091.399l2.28 3.92a.3.3 0 0 0 .39.12l1.009-.48-3.52 6.689c-.2.37-.06.82.31 1.01.37.2.82.06 1.01-.31l3.32-6.3 3.34 6.3a.754.754 0 0 0 1.02.31c.36-.19.5-.65.31-1.01Z"/></svg>
